images/farms/ditto-bnb.svg

<svg width="160" height="160" viewBox="0 0 160 160" fill="none" xmlns="http://www.w3.org/2000/svg">
<g clip-path="url(#clip0)">
<path d="M48.045 119.028C44.8667 131.172 63.0449 146.449 88.6472 153.149C114.25 159.849 137.581 155.436 140.759 143.291C143.937 131.146 125.759 115.87 100.157 109.169C74.5546 102.469 51.2233 106.883 48.045 119.028Z" fill="#606063"/>
<path d="M136.924 149.273L152.346 132.988L42.9922 104.369L48.7128 126.187L136.924 149.273Z" fill="#606063"/>
<path d="M49.9337 108.293L8.07245 97.338C6.25796 96.8632 4.41259 97.9924 4.00962 99.8242L3.54142 101.953C2.60839 106.194 5.11954 110.433 9.28748 111.653L51.0994 123.892L49.9337 108.293Z" fill="#606063"/>
<path d="M43.2026 98.7096C39.5089 112.824 61.5267 130.811 92.3808 138.886C123.235 146.96 151.241 142.064 154.935 127.95C158.629 113.836 136.611 95.8488 105.757 87.7742C74.9028 79.6996 46.8963 84.5955 43.2026 98.7096Z" fill="url(#paint0_linear)"/>
<path fill-rule="evenodd" clip-rule="evenodd" d="M127.673 123.286C134.771 128.506 138.919 134.152 139.538 139.157L142.516 138.789C141.744 132.551 136.779 126.258 129.45 120.869C122.061 115.434 112.011 110.721 100.537 107.718C89.0628 104.716 77.9927 103.901 68.888 105.019C59.8593 106.128 52.4479 109.182 48.7196 114.242L51.1348 116.021C54.1263 111.961 60.5082 109.071 69.2536 107.997C77.9231 106.933 88.6081 107.698 99.7773 110.621C110.946 113.544 120.636 118.111 127.673 123.286Z" fill="#606063"/>
<path fill-rule="evenodd" clip-rule="evenodd" d="M56.7343 118.739C48.0136 111.615 44.7365 104.698 46.1049 99.4692C47.4733 94.2403 53.7186 89.8155 64.8112 87.8763C75.6178 85.9872 89.8893 86.7226 104.997 90.6764C120.105 94.6302 132.908 100.98 141.403 107.921C150.124 115.045 153.401 121.962 152.033 127.191C150.664 132.42 144.419 136.844 133.326 138.784C122.52 140.673 108.248 139.937 93.1403 135.984C78.0323 132.03 65.2301 125.68 56.7343 118.739ZM92.3808 138.886C61.5267 130.811 39.5089 112.824 43.2026 98.7096C46.8963 84.5955 74.9028 79.6996 105.757 87.7742C136.611 95.8488 158.629 113.836 154.935 127.95C151.241 142.064 123.235 146.96 92.3808 138.886Z" fill="#979797"/>
<path fill-rule="evenodd" clip-rule="evenodd" d="M45.1673 124.049L40.2305 104.926L43.1352 104.176L48.0721 123.299L45.1673 124.049Z" fill="url(#paint1_linear)"/>
<path fill-rule="evenodd" clip-rule="evenodd" d="M43.4691 106.189C43.4241 106.041 43.3812 105.893 43.3406 105.746C43.2656 105.473 43.1983 105.2 43.1386 104.929L42.997 104.389C42.9948 104.38 43.0025 104.372 43.0109 104.375C43.019 104.377 43.0266 104.37 43.0251 104.362C43.0236 104.353 43.0222 104.345 43.0207 104.337C42.9732 104.072 42.9333 103.807 42.9009 103.543C42.8931 103.479 42.8857 103.416 42.8788 103.352C42.8065 102.689 42.7824 102.031 42.8078 101.378C42.8079 101.378 42.8079 101.378 42.8079 101.377C42.8432 100.475 42.9734 99.5849 43.2025 98.7095C46.8962 84.5954 74.9027 79.6994 105.757 87.774C136.611 95.8486 158.629 113.836 154.935 127.95C154.706 128.826 154.383 129.666 153.972 130.469C153.972 130.469 153.972 130.47 153.972 130.47C153.528 131.338 152.981 132.163 152.337 132.945C152.332 132.951 152.326 132.958 152.321 132.964C152.319 132.967 152.318 132.969 152.318 132.972C152.318 132.977 152.322 132.982 152.327 132.983C152.332 132.984 152.335 132.989 152.336 132.993C152.336 132.996 152.335 133 152.333 133.002L151.725 133.644C151.655 133.72 151.584 133.795 151.511 133.87L150.275 135.175L150.273 135.177L138.793 147.299C131.986 156.33 111.197 159.051 88.6472 153.149C66.3446 147.312 49.6757 134.967 47.8505 123.854C47.7571 123.285 47.3667 122.8 46.8135 122.639L10.1271 111.91C5.98342 110.698 3.4722 106.499 4.36483 102.275L4.82393 100.103C5.21371 98.2581 7.06553 97.1133 8.88976 97.589L43.1386 106.52C43.3391 106.573 43.5217 106.39 43.4691 106.189ZM39.8119 102.553C39.7482 101.009 39.9029 99.4681 40.3002 97.9499C42.6255 89.0648 52.2303 83.9845 63.7779 81.9658C75.6114 79.8971 90.7702 80.751 106.516 84.8718C122.262 88.9926 135.896 95.6738 145.199 103.274C154.277 110.691 160.162 119.825 157.837 128.71C157.28 130.839 156.285 132.774 154.936 134.499C154.821 134.697 154.679 134.887 154.511 135.065L153.923 135.686C153.92 135.689 153.916 135.693 153.913 135.697C153.836 135.779 153.759 135.861 153.68 135.943C153.677 135.946 153.673 135.95 153.67 135.953L141.082 149.246C136.911 154.652 129.056 157.706 119.984 158.802C110.684 159.926 99.4667 159.082 87.8877 156.051C76.4351 153.054 66.3397 148.366 58.8095 142.91C51.73 137.78 46.4882 131.648 45.0667 125.253L9.28503 114.789C3.63618 113.137 0.212785 107.413 1.42965 101.655L1.88875 99.4823C2.63251 95.9628 6.16596 93.7783 9.64679 94.6861L39.8119 102.553Z" fill="url(#paint2_linear)"/>
<circle cx="57" cy="29" r="29" fill="#F0B90B"/>
<path d="M46.1846 28.9998L41.7476 33.4676L37.2798 28.9998L41.7476 24.532L46.1846 28.9998ZM56.9998 18.1846L64.6413 25.8261L69.1091 21.3583L61.4676 13.7476L56.9998 9.27979L52.532 13.7476L44.9213 21.3583L49.3891 25.8261L56.9998 18.1846ZM72.252 24.532L67.815 28.9998L72.2828 33.4676L76.7198 28.9998L72.252 24.532ZM56.9998 39.815L49.3583 32.1735L44.9213 36.6413L52.5628 44.2828L56.9998 48.7198L61.4676 44.252L69.1091 36.6105L64.6413 32.1735L56.9998 39.815ZM56.9998 33.4676L61.4676 28.9998L56.9998 24.532L52.532 28.9998L56.9998 33.4676Z" fill="#FFFDFA"/>
<g style="mix-blend-mode:multiply" opacity="0.1">
<path fill-rule="evenodd" clip-rule="evenodd" d="M57 55C71.3594 55 83 43.3594 83 29C83 14.6406 71.3594 3 57 3C42.6406 3 31 14.6406 31 29C31 43.3594 42.6406 55 57 55ZM57 58C73.0163 58 86 45.0163 86 29C86 12.9837 73.0163 0 57 0C40.9837 0 28 12.9837 28 29C28 45.0163 40.9837 58 57 58Z" fill="#191326"/>
</g>
<path d="M106.937 115.612C130.72 115.612 150 96.2694 150 72.4092C150 48.549 130.72 29.2065 106.937 29.2065C83.1545 29.2065 63.8748 48.549 63.8748 72.4092C63.8748 96.2694 83.1545 115.612 106.937 115.612Z" fill="#EE7CC1"/>
<path fill-rule="evenodd" clip-rule="evenodd" d="M106.359 29.5946C82.7398 29.5946 63.5927 48.804 63.5927 72.5C63.5927 96.196 82.7398 115.405 106.359 115.405C129.978 115.405 149.125 96.196 149.125 72.5C149.125 48.804 129.978 29.5946 106.359 29.5946ZM63 72.5C63 48.4756 82.4125 29 106.359 29C130.305 29 149.718 48.4756 149.718 72.5C149.718 96.5244 130.305 116 106.359 116C82.4125 116 63 96.5244 63 72.5Z" fill="black"/>
<path d="M91.4431 63.4585C92.4015 63.4585 93.1784 62.6791 93.1784 61.7175C93.1784 60.756 92.4015 59.9766 91.4431 59.9766C90.4847 59.9766 89.7078 60.756 89.7078 61.7175C89.7078 62.6791 90.4847 63.4585 91.4431 63.4585Z" fill="black"/>
<path d="M121.521 63.4585C122.48 63.4585 123.257 62.6791 123.257 61.7175C123.257 60.756 122.48 59.9766 121.521 59.9766C120.563 59.9766 119.786 60.756 119.786 61.7175C119.786 62.6791 120.563 63.4585 121.521 63.4585Z" fill="black"/>
<path fill-rule="evenodd" clip-rule="evenodd" d="M77.6729 71.6077C77.6729 71.6077 74.743 74.4502 81.084 77.3949C81.084 77.3949 92.5628 82.4528 107.92 81.994C125.882 81.4575 134.247 76.3366 136.073 74.7504C138.33 72.7894 137.507 69.4091 131.105 70.5218C123.681 71.8121 119.293 72.8277 108.133 73.1726C98.9367 73.4569 88.5896 72.8961 84.1555 71.876C78.3523 70.5409 77.6729 71.6077 77.6729 71.6077Z" fill="#B32C43"/>
<path fill-rule="evenodd" clip-rule="evenodd" d="M80.2393 77.8021C80.2393 77.8021 90.1046 75.5856 106.07 75.4706C122.036 75.3556 133.006 77.0037 133.006 77.0037C133.006 77.0037 121.909 82.3536 106.842 82.3438C88.1249 82.3316 80.2393 77.8021 80.2393 77.8021Z" fill="#F06C75"/>
<path fill-rule="evenodd" clip-rule="evenodd" d="M77.1516 71.241C77.2144 71.1425 77.4437 70.8724 78.135 70.7079C78.9248 70.5201 80.6455 70.4247 84.299 71.2652C88.7027 72.2783 98.9796 72.8282 108.113 72.5459C119.229 72.2023 123.6 71.1894 130.995 69.9041C134.556 69.2852 136.541 70.0517 137.347 71.1099C138.26 72.3098 137.918 74.0188 136.493 75.2559C134.64 76.8654 126.165 82.1121 107.939 82.6566C92.4221 83.1201 80.8253 78.0033 80.8138 77.9981C77.2822 76.358 76.4255 74.6525 76.3585 73.4509C76.2947 72.3081 76.9301 71.4895 77.1516 71.241ZM77.6727 71.6255C77.6727 71.6255 74.7428 74.4681 81.0838 77.4128C81.0838 77.4128 92.5626 82.4707 107.92 82.0119C125.882 81.4753 134.246 76.3545 136.073 74.7683C138.33 72.8073 137.506 69.427 131.104 70.5397C123.681 71.83 119.293 72.8456 108.132 73.1905C98.9365 73.4748 88.5894 72.9139 84.1553 71.8938C78.3521 70.5588 77.6727 71.6255 77.6727 71.6255Z" fill="black"/>
<path fill-rule="evenodd" clip-rule="evenodd" d="M125.241 71.5427C125.241 71.5427 131.038 70.3638 133.911 71.4479C137.97 72.9789 134.377 76.0694 134.377 76.0694C134.377 76.0694 137.217 74.5974 137.51 72.9144C137.51 72.9144 138.115 69.9111 132.773 70.1047C129.834 70.2111 125.241 71.5427 125.241 71.5427Z" fill="black"/>
<path fill-rule="evenodd" clip-rule="evenodd" d="M132.081 64.4607C133.675 64.134 135.072 64.3692 135.197 64.9855C135.323 65.6018 134.13 66.3673 132.535 66.694C130.94 67.0206 129.544 66.7855 129.418 66.1692C129.293 65.5529 130.486 64.7873 132.081 64.4607Z" fill="#FFD6F1"/>
<path fill-rule="evenodd" clip-rule="evenodd" d="M86.6506 35.7563C75.3643 41.4356 70.1391 51.408 80.4836 50.2344C82.7492 49.9775 84.6245 45.6694 90.4689 42.547C94.7446 40.2627 102.16 38.6566 101.765 35.3763C101.507 33.2357 99.6928 32.3799 95.1466 32.8366C91.5149 33.2014 86.6506 35.7563 86.6506 35.7563Z" fill="#FFD6F1"/>
<g style="mix-blend-mode:multiply" opacity="0.2">
<path fill-rule="evenodd" clip-rule="evenodd" d="M106.5 113.163C128.958 113.163 147.163 94.9576 147.163 72.5C147.163 50.0424 128.958 31.837 106.5 31.837C84.0424 31.837 65.837 50.0424 65.837 72.5C65.837 94.9576 84.0424 113.163 106.5 113.163ZM106.5 116C130.524 116 150 96.5244 150 72.5C150 48.4756 130.524 29 106.5 29C82.4756 29 63 48.4756 63 72.5C63 96.5244 82.4756 116 106.5 116Z" fill="#191326"/>
</g>
</g>
<defs>
<linearGradient id="paint0_linear" x1="105.757" y1="87.7742" x2="92.3808" y2="138.886" gradientUnits="userSpaceOnUse">
<stop stop-color="#404042"/>
<stop offset="1" stop-color="#48484B"/>
</linearGradient>
<linearGradient id="paint1_linear" x1="46.5673" y1="105.096" x2="41.7353" y2="123.129" gradientUnits="userSpaceOnUse">
<stop stop-color="#404042"/>
<stop offset="1" stop-color="#48484B"/>
</linearGradient>
<linearGradient id="paint2_linear" x1="73.4948" y1="80.1687" x2="89.0896" y2="164.62" gradientUnits="userSpaceOnUse">
<stop stop-color="#404042"/>
<stop offset="1" stop-color="#48484B"/>
</linearGradient>
<clipPath id="clip0">
<rect width="160" height="160" fill="white"/>
</clipPath>
</defs>
</svg>

<svg xmlns="http://www.w3.org/2000/svg" xmlns:v="https://vecta.io/nano" width="160" height="160" fill="none"><style>.B{fill-rule:evenodd}</style><g clip-path="url(#D)"><g fill="#606063"><path d="M48.045 119.028c-3.178 12.144 15 27.421 40.602 34.121s48.934 2.287 52.112-9.858-15-27.421-40.602-34.122-48.934-2.286-52.112 9.859z"/><path d="M136.924 149.273l15.422-16.285-109.354-28.619 5.721 21.818 88.211 23.086z"/><path d="M49.934 108.293L8.072 97.338c-1.814-.475-3.66.654-4.063 2.486l-.468 2.129a8.26 8.26 0 0 0 5.746 9.7l41.812 12.239-1.166-15.599z"/></g><path fill="url(#A)" d="M43.203 98.71c-3.694 14.114 18.324 32.101 49.178 40.176s58.86 3.178 62.554-10.936-18.324-32.101-49.178-40.176-58.861-3.179-62.554 10.935z"/><g class="B"><path fill="#606063" d="M127.673 123.286c7.098 5.22 11.246 10.866 11.865 15.871l2.978-.368c-.772-6.238-5.737-12.531-13.066-17.92-7.389-5.435-17.439-10.148-28.913-13.151s-22.544-3.817-31.649-2.699c-9.029 1.109-16.44 4.163-20.168 9.223l2.415 1.779c2.992-4.06 9.373-6.95 18.119-8.024 8.67-1.064 19.354-.299 30.524 2.624s20.859 7.49 27.896 12.665z"/><path fill="#979797" d="M56.734 118.739c-8.721-7.124-11.998-14.041-10.629-19.27s7.614-9.654 18.706-11.593c10.807-1.889 25.078-1.154 40.186 2.8s27.911 10.304 36.406 17.245c8.721 7.124 11.998 14.041 10.63 19.27s-7.614 9.653-18.707 11.593c-10.806 1.889-25.078 1.153-40.186-2.8s-27.91-10.304-36.406-17.245zm35.646 20.147c-30.854-8.075-52.872-26.062-49.178-40.176s31.7-19.01 62.554-10.935 52.872 26.062 49.178 40.176-31.7 19.01-62.554 10.936z"/><path fill="url(#B)" d="M45.167 124.049l-4.937-19.123 2.905-.75 4.937 19.123-2.905.75z"/><path fill="url(#C)" d="M43.469 106.189l-.128-.443-.202-.817-.142-.54c.022-.012.03-.019.028-.027l-.004-.025-.12-.794-.022-.191c-.072-.663-.096-1.321-.071-1.974.035-.903.166-1.793.395-2.668 3.694-14.114 31.7-19.01 62.555-10.936s52.872 26.062 49.178 40.176a12.4 12.4 0 0 1-.963 2.519 13.7 13.7 0 0 1-1.635 2.476l-.016.019c.011.02.014.025.015.029l-.611.651-12.932 13.655c-6.807 9.031-27.596 11.752-50.146 5.85-22.303-5.837-38.971-18.182-40.797-29.295-.093-.569-.484-1.054-1.037-1.215L10.127 111.91a8.26 8.26 0 0 1-5.762-9.635l.459-2.172c.39-1.845 2.242-2.99 4.066-2.514l34.249 8.931a.27.27 0 0 0 .331-.331zm-3.657-3.636c-.064-1.544.091-3.085.488-4.603 2.325-8.885 11.93-13.965 23.478-15.984 11.834-2.069 26.992-1.215 42.738 2.906s29.38 10.802 38.683 18.402c9.078 7.417 14.963 16.551 12.638 25.436-.557 2.129-1.552 4.064-2.901 5.789a3.08 3.08 0 0 1-.425.566l-13.429 14.181c-4.171 5.406-12.026 8.46-21.098 9.556-9.3 1.124-20.517.28-32.096-2.751-11.453-2.997-21.548-7.685-29.078-13.141-7.08-5.13-12.321-11.262-13.743-17.657L9.285 114.789a11.26 11.26 0 0 1-7.855-13.134l.459-2.173c.744-3.519 4.277-5.704 7.758-4.796l30.165 7.867z"/></g><circle cx="57" cy="29" r="29" fill="#f0b90b"/><path fill="#fffdfa" d="M46.185 29l-4.437 4.468L37.28 29l4.468-4.468L46.185 29zM57 18.185l7.642 7.642 4.468-4.468-7.642-7.611L57 9.28 44.921 21.358l4.468 4.468L57 18.185zm15.252 6.347L67.815 29l4.468 4.468L76.72 29l-4.468-4.468zM57 39.815l-7.642-7.642-4.437 4.468L57 48.72l12.109-12.109-4.468-4.437L57 39.815zm0-6.347L61.468 29 57 24.532 52.532 29 57 33.468z"/><g style="mix-blend-mode:multiply" class="B" opacity=".1"><path fill="#191326" d="M57 55c14.359 0 26-11.641 26-26S71.359 3 57 3 31 14.641 31 29s11.641 26 26 26zm0 3c16.016 0 29-12.984 29-29S73.016 0 57 0 28 12.984 28 29s12.984 29 29 29z"/></g><path fill="#ee7cc1" d="M106.937 115.612c23.783 0 43.063-19.343 43.063-43.203s-19.28-43.203-43.063-43.203-43.062 19.343-43.062 43.203 19.28 43.203 43.062 43.203z"/><g fill="#000"><path d="M106.359 29.595c-23.619 0-42.766 19.209-42.766 42.905s19.147 42.905 42.766 42.905 42.766-19.209 42.766-42.905-19.147-42.905-42.766-42.905zM63 72.5C63 48.476 82.413 29 106.359 29s43.359 19.476 43.359 43.5-19.413 43.5-43.359 43.5S63 96.524 63 72.5z" class="B"/><path d="M91.443 63.459a1.741 1.741 0 1 0 0-3.482 1.741 1.741 0 1 0 0 3.482zm30.078 0a1.741 1.741 0 1 0 0-3.482 1.741 1.741 0 1 0 0 3.482z"/></g><g class="B"><path fill="#b32c43" d="M77.673 71.608s-2.93 2.843 3.411 5.787c0 0 11.479 5.058 26.836 4.599 17.962-.537 26.327-5.657 28.153-7.244 2.257-1.961 1.434-5.341-4.968-4.229-7.424 1.29-11.812 2.306-22.972 2.651-9.196.284-19.543-.276-23.977-1.297-5.803-1.335-6.483-.268-6.483-.268z"/><path fill="#f06c75" d="M80.239 77.802s9.865-2.216 25.831-2.331 26.936 1.533 26.936 1.533-11.097 5.35-26.164 5.34c-18.717-.012-26.603-4.542-26.603-4.542z"/><g fill="#000"><path d="M77.152 71.241c.063-.099.292-.369.983-.533.79-.188 2.51-.283 6.164.557 4.404 1.013 14.681 1.563 23.814 1.281 11.116-.344 15.487-1.356 22.882-2.642 3.561-.619 5.546.148 6.352 1.206.913 1.2.571 2.909-.854 4.146-1.853 1.609-10.328 6.856-28.554 7.401-15.517.463-27.114-4.653-27.125-4.659-3.532-1.64-4.388-3.346-4.455-4.547-.064-1.143.572-1.961.793-2.21zm.521.385s-2.93 2.843 3.411 5.787c0 0 11.479 5.058 26.836 4.599 17.962-.537 26.326-5.657 28.153-7.244 2.257-1.961 1.433-5.341-4.969-4.229-7.423 1.29-11.811 2.306-22.972 2.651-9.196.284-19.543-.277-23.977-1.297-5.803-1.335-6.483-.268-6.483-.268z"/><path d="M125.241 71.543s5.797-1.179 8.67-.095c4.059 1.531.466 4.621.466 4.621s2.84-1.472 3.133-3.155c0 0 .605-3.003-4.737-2.81-2.939.106-7.532 1.438-7.532 1.438z"/></g><g fill="#ffd6f1"><path d="M132.081 64.461c1.594-.327 2.991-.091 3.116.525s-1.067 1.382-2.662 1.709-2.991.091-3.117-.525 1.068-1.382 2.663-1.709zm-45.43-28.705c-11.286 5.679-16.511 15.652-6.167 14.478 2.266-.257 4.141-4.565 9.985-7.687 4.276-2.284 11.691-3.89 11.296-7.171-.258-2.141-2.072-2.996-6.618-2.54-3.632.365-8.496 2.92-8.496 2.92z"/></g></g><g style="mix-blend-mode:multiply" class="B" opacity=".2"><path fill="#191326" d="M106.5 113.163c22.458 0 40.663-18.205 40.663-40.663S128.958 31.837 106.5 31.837 65.837 50.042 65.837 72.5s18.205 40.663 40.663 40.663zm0 2.837c24.024 0 43.5-19.476 43.5-43.5S130.524 29 106.5 29 63 48.476 63 72.5 82.476 116 106.5 116z"/></g></g><defs><linearGradient id="A" x1="105.757" x2="92.381" y1="87.774" y2="138.886" gradientUnits="userSpaceOnUse"><stop stop-color="#404042"/><stop offset="1" stop-color="#48484b"/></linearGradient><linearGradient id="B" x1="46.567" x2="41.735" y1="105.096" y2="123.129" gradientUnits="userSpaceOnUse"><stop stop-color="#404042"/><stop offset="1" stop-color="#48484b"/></linearGradient><linearGradient id="C" x1="73.495" x2="89.09" y1="80.169" y2="164.62" gradientUnits="userSpaceOnUse"><stop stop-color="#404042"/><stop offset="1" stop-color="#48484b"/></linearGradient><clipPath id="D"><path fill="#fff" d="M0 0h160v160H0z"/></clipPath></defs></svg>
